X:2
T:Dancing On The Ceiling
C:Richard Rodgers
L:1/4
M:C
I:linebreak $
K:F
"F" z C"Gm" D E |"Dm" F G"A+" A2 |"Bb6" G F"E7" E D |"Am" c c"Abm" =B2 Ox/||$
"Gm" B2"Go" z c |"Am" A2"Ab7" z2 |"Gm" G2"Gb7" z A |"F" F2"F6" z2 :|$"Gm" z G"Am" G G |
"Bb6" G/G/ G/A/"Eb7" F G |"F" A2"Gm" c2 |"Am" c2"Bb" z2 |$"Bø" z G G G |
"Bb6" G/G/ G/A/"Bbm6" F G |"Am" A2"Ab7" c2 |"Gm" c2"Gb7""_D.C. al Coda" z2 ||$Ox/"Gm" B2"GmM" d2 |
"Gm" z2"Gb7" E2 |"F6" F4 | z4 |]

